src/resources/public/icons/radio.svg

<svg width="12" height="21" viewBox="0 0 12 21" fill="none" xmlns="http://www.w3.org/2000/svg">
<g clip-path="url(#clip0_744_62457)">
<path d="M0.345947 6.9966C0.37016 6.86022 0.388937 6.72235 0.419079 6.58696C0.668121 5.4549 1.61488 4.69246 2.79388 4.68702C4.09789 4.6806 5.4024 4.68554 6.70642 4.68554C6.79536 4.68554 6.88381 4.68554 6.99252 4.68554C6.99746 4.57782 7.00438 4.49085 7.00438 4.40339C7.00537 3.45861 7.0024 2.51383 7.00635 1.56905C7.00833 1.0759 7.21439 0.692952 7.66405 0.472075C8.08455 0.265034 8.49518 0.314447 8.86874 0.591161C9.20475 0.840203 9.33075 1.19203 9.32927 1.60314C9.32581 2.52322 9.32828 3.44329 9.32828 4.36337C9.32828 4.4612 9.32828 4.55904 9.32828 4.67417C9.49382 4.70135 9.64749 4.71766 9.79672 4.75324C10.825 4.99635 11.581 5.8423 11.624 6.89975C11.667 7.95768 11.6636 9.01957 11.623 10.077C11.6057 10.5356 11.4931 11.006 11.3394 11.4413C10.8868 12.7246 10.6372 14.0325 10.6649 15.3978C10.6876 16.5309 10.6694 17.6649 10.6694 18.7984C10.6694 19.8455 10.4223 20.2018 9.45231 20.5536H2.56114C1.59215 20.2028 1.34409 19.845 1.34409 18.8019C1.34409 17.5715 1.35793 16.3406 1.33767 15.1107C1.32828 14.5469 1.27047 13.9826 1.20327 13.4218C1.06293 12.2472 0.440327 11.1918 0.345947 10.0039C0.345947 9.00129 0.345947 7.99919 0.345947 6.9966ZM6.0092 5.18906C4.95917 5.18906 3.90913 5.18313 2.8596 5.19054C1.6549 5.19894 0.880104 5.98313 0.876645 7.18832C0.874175 8.01797 0.884057 8.84811 0.873186 9.67726C0.865774 10.2519 0.962624 10.8009 1.16127 11.3395C1.5205 12.3135 1.79375 13.3151 1.81896 14.3572C1.85651 15.9009 1.84564 17.4455 1.85453 18.9897C1.85849 19.6943 2.19499 20.0382 2.89073 20.0387C4.96608 20.0397 7.04144 20.0397 9.11679 20.0387C9.81747 20.0387 10.1574 19.6978 10.1584 18.9956C10.1599 17.7963 10.1718 16.5966 10.1555 15.3973C10.1367 13.9846 10.3684 12.6198 10.867 11.299C11.0577 10.794 11.1457 10.2737 11.1403 9.73211C11.1314 8.88616 11.1403 8.03971 11.1363 7.19376C11.1353 7.02229 11.1309 6.84638 11.0948 6.67986C10.8952 5.76571 10.1574 5.19697 9.15978 5.19005C8.10975 5.18313 7.05972 5.18857 6.01018 5.18857L6.0092 5.18906ZM8.81587 4.6722C8.81587 3.58461 8.82427 2.51877 8.81142 1.45293C8.80697 1.09567 8.48183 0.839215 8.12606 0.862934C7.75398 0.88764 7.51976 1.15842 7.51778 1.58832C7.51333 2.55682 7.5163 3.52532 7.51679 4.49382C7.51679 4.54916 7.5247 4.6045 7.53014 4.6722H8.81587Z" fill="#414B61"/>
<path d="M9.51303 20.8989H2.50031L2.44299 20.8781C1.33564 20.4769 0.997653 19.9917 0.997653 18.8013C0.997653 18.4441 0.998641 18.0873 1.00012 17.73C1.00309 16.8727 1.00605 15.9857 0.991723 15.1156C0.982829 14.5557 0.923039 13.9899 0.85979 13.4622C0.797035 12.9365 0.630513 12.4349 0.454602 11.9032C0.257443 11.3088 0.0538604 10.6936 0.000988264 10.0305L0 10.0033V6.96586L0.00543545 6.93621C0.0128474 6.89421 0.0197653 6.85221 0.0266831 6.81021C0.0424954 6.71385 0.0588017 6.61404 0.0815318 6.51225C0.366152 5.2196 1.45522 4.34696 2.79284 4.34054C3.70352 4.33658 4.62903 4.33708 5.5239 4.33807C5.90241 4.33807 6.28091 4.33905 6.65893 4.33905C6.65893 4.01935 6.65893 3.70014 6.65893 3.38044C6.65893 2.786 6.65843 2.17179 6.6609 1.56697C6.66337 0.919659 6.95788 0.433433 7.5118 0.160672C8.03805 -0.0982536 8.59345 -0.0448873 9.07523 0.311876C9.47597 0.608355 9.67758 1.0427 9.6756 1.60304C9.67313 2.25431 9.67363 2.91694 9.67412 3.55783C9.67412 3.82565 9.67412 4.09396 9.67412 4.36178V4.37562C9.74083 4.38649 9.80852 4.39884 9.87622 4.41515C11.0799 4.69928 11.9209 5.69149 11.9694 6.88383C12.0109 7.90619 12.0104 8.98439 11.9684 10.0883C11.9511 10.5394 11.8493 11.0331 11.6655 11.5544C11.1995 12.8762 10.9851 14.1308 11.0107 15.3888C11.0266 16.179 11.0226 16.9809 11.0187 17.7562C11.0172 18.1031 11.0152 18.45 11.0152 18.7964C11.0152 19.9892 10.6777 20.4749 9.56986 20.8767L9.51254 20.8974L9.51303 20.8989ZM4.08203 5.53238C3.67536 5.53238 3.26671 5.53337 2.86201 5.53584C1.85349 5.54276 1.22545 6.17624 1.22248 7.18871C1.22149 7.49952 1.22248 7.81033 1.22298 8.12114C1.22446 8.63207 1.22545 9.1603 1.21902 9.68111C1.21211 10.2113 1.29957 10.7143 1.48586 11.2193C1.92613 12.4127 2.14206 13.4069 2.16479 14.3482C2.19148 15.4526 2.19395 16.5743 2.19592 17.6589C2.19691 18.1016 2.1979 18.5444 2.20037 18.9871C2.20334 19.5005 2.39061 19.6917 2.89067 19.6922C4.96553 19.6932 7.04089 19.6932 9.11625 19.6922C9.62273 19.6922 9.81149 19.503 9.81198 18.9945C9.81198 18.6699 9.81347 18.3457 9.81445 18.0211C9.81742 17.1618 9.82038 16.2733 9.80902 15.4012C9.78925 13.9391 10.0363 12.5174 10.5428 11.1764C10.7167 10.7148 10.7993 10.2434 10.7938 9.73547C10.7889 9.24282 10.7894 8.74276 10.7904 8.2595C10.7909 7.91064 10.7914 7.54943 10.7899 7.19514C10.7894 7.0464 10.7859 6.88976 10.7563 6.75388C10.5907 5.99687 9.99284 5.54177 9.15676 5.53634C8.42742 5.53139 7.68474 5.53288 6.96677 5.53386C6.32539 5.53485 5.6845 5.53485 5.04311 5.53386C4.72637 5.53337 4.40469 5.53288 4.08203 5.53288V5.53238ZM7.86263 4.32571H8.46992C8.46992 4.13498 8.47041 3.94474 8.47091 3.75499C8.47239 2.99995 8.47437 2.21923 8.46498 1.45678C8.46399 1.37574 8.42248 1.32089 8.38789 1.28878C8.32563 1.23096 8.23867 1.20181 8.14824 1.20774C8.07807 1.21218 7.86461 1.22651 7.86313 1.58921C7.85967 2.34671 7.86066 3.11805 7.86164 3.8632V4.32571H7.86263Z" fill="#414B61"/>
<path d="M5.99529 10.6974C5.20023 10.6974 4.40468 10.7003 3.60962 10.6964C2.73353 10.6924 2.14847 10.1103 2.13513 9.2293C2.12871 8.82707 2.12821 8.42436 2.13513 8.02213C2.15144 7.10206 2.77207 6.48093 3.69313 6.47747C5.23433 6.47105 6.77602 6.47105 8.31722 6.47747C9.24767 6.48143 9.86632 7.10799 9.87868 8.04437C9.88362 8.43028 9.88312 8.8162 9.87868 9.20212C9.86929 10.1128 9.2872 10.6939 8.38096 10.6969C7.5859 10.6993 6.79035 10.6974 5.99529 10.6974ZM6.00913 10.1968C6.81259 10.1968 7.61654 10.1998 8.42 10.1958C8.98875 10.1929 9.35786 9.8267 9.36725 9.25697C9.37417 8.83844 9.37417 8.41941 9.36725 8.00039C9.35687 7.3852 8.95959 6.98791 8.34143 6.98594C6.78343 6.981 5.22543 6.981 3.66744 6.98594C3.05026 6.98791 2.65644 7.38767 2.64705 8.00533C2.64112 8.40755 2.6431 8.81027 2.64606 9.2125C2.65101 9.84153 3.01222 10.1953 3.64816 10.1963C4.43532 10.1978 5.22247 10.1963 6.00962 10.1963L6.00913 10.1968Z" fill="#414B61"/>
<path d="M4.53465 11.044C4.22631 11.044 3.9155 11.044 3.60765 11.042C2.53638 11.037 1.80555 10.3107 1.78875 9.23394C1.78233 8.80306 1.78233 8.4043 1.78875 8.01541C1.80802 6.91053 2.59024 6.13524 3.69116 6.13079C5.20518 6.12437 6.7617 6.12437 8.31822 6.13079C9.44335 6.13524 10.2093 6.90213 10.2241 8.03913C10.2285 8.39688 10.229 8.77835 10.2241 9.20528C10.2127 10.3003 9.47201 11.0385 8.38196 11.0425C7.83051 11.0444 7.26967 11.044 6.7276 11.0435C6.4835 11.0435 6.2394 11.0435 5.9953 11.0435C5.74675 11.044 5.50117 11.0435 5.2541 11.044C5.01741 11.044 4.77677 11.044 4.53514 11.044H4.53465ZM6.00914 9.85062C6.25077 9.85062 6.4924 9.85062 6.73403 9.85112C7.28597 9.85161 7.85719 9.8526 8.41803 9.84963C8.80049 9.84766 9.01494 9.63518 9.02087 9.25074C9.02779 8.83123 9.02779 8.4122 9.02087 8.00553C9.01395 7.5786 8.76541 7.33252 8.33946 7.33154C6.74342 7.32659 5.17158 7.32659 3.66794 7.33154C3.24496 7.33302 2.99839 7.58058 2.99197 8.01047C2.98554 8.42752 2.98801 8.84803 2.99098 9.20973C2.99444 9.64605 3.20345 9.84963 3.64768 9.85062C4.20358 9.85161 4.75948 9.85112 5.31587 9.85112H6.00864L6.00914 9.85062Z" fill="#414B61"/>
<path d="M6.0046 15.4366C5.31677 15.4366 4.62894 15.4351 3.94111 15.4376C3.76075 15.4381 3.59571 15.4104 3.59867 15.1876C3.60114 14.9706 3.76272 14.9351 3.94456 14.9356C5.32023 14.937 6.69639 14.937 8.07205 14.9356C8.25488 14.9356 8.41448 14.9746 8.41498 15.1905C8.41498 15.4129 8.24846 15.4381 8.06909 15.4376C7.38125 15.4351 6.69342 15.4366 6.00559 15.4366H6.0046Z" fill="#414B61"/>
<path d="M8.08439 15.7837C8.07846 15.7837 8.07253 15.7837 8.06709 15.7837C7.56654 15.7817 7.05709 15.7822 6.56444 15.7822H6.00459H5.44325C4.9427 15.7822 4.44263 15.7817 3.94208 15.7837C3.83633 15.7837 3.58729 15.7851 3.41039 15.6068C3.33677 15.5326 3.24931 15.3987 3.25227 15.1833C3.25375 15.044 3.3091 14.5898 3.94257 14.5898H3.94406C5.33257 14.5913 6.72108 14.5913 8.07055 14.5898H8.07204C8.70897 14.5898 8.75937 15.0494 8.75987 15.1902C8.75987 15.4037 8.6729 15.5356 8.59927 15.6092C8.43176 15.7763 8.19853 15.7842 8.0839 15.7842L8.08439 15.7837Z" fill="#414B61"/>
<path d="M6.00477 16.6978C6.701 16.6978 7.39723 16.6987 8.09297 16.6973C8.25554 16.6973 8.40131 16.7314 8.41416 16.9206C8.42849 17.1341 8.28568 17.2013 8.09643 17.2013C7.45752 17.2013 6.81861 17.2013 6.18019 17.2013C5.43504 17.2013 4.68939 17.2087 3.94473 17.1934C3.8301 17.1909 3.67197 17.1094 3.61465 17.015C3.51879 16.8574 3.67642 16.7007 3.91657 16.6992C4.6128 16.6963 5.30903 16.6983 6.00477 16.6983V16.6978Z" fill="#414B61"/>
<path d="M5.08369 17.5491C4.70371 17.5491 4.31878 17.5471 3.93731 17.5392C3.70111 17.5343 3.43478 17.3861 3.31865 17.1943C3.21933 17.0303 3.21439 16.8351 3.30531 16.672C3.41452 16.4769 3.64824 16.3548 3.91458 16.3533C4.41563 16.3513 4.92409 16.3513 5.41624 16.3518H6.56164C7.07208 16.3523 7.58203 16.3528 8.09197 16.3518H8.09494C8.67702 16.3518 8.75015 16.7694 8.75905 16.8979C8.77437 17.1271 8.68641 17.2729 8.60982 17.3544C8.49024 17.4824 8.3173 17.5476 8.09642 17.5476H6.17968C5.99636 17.5476 5.81353 17.5481 5.6302 17.5486C5.44935 17.5486 5.26702 17.5496 5.0832 17.5496L5.08369 17.5491Z" fill="#414B61"/>
<path d="M6.0007 13.3291C6.45184 13.3291 6.90299 13.3301 7.35413 13.3291C7.53548 13.3291 7.69656 13.3672 7.69261 13.5885C7.68866 13.7916 7.53745 13.8376 7.365 13.8376C6.46272 13.8376 5.56043 13.8376 4.65814 13.8376C4.4763 13.8376 4.31571 13.7936 4.32016 13.5752C4.32461 13.3528 4.49459 13.3281 4.67198 13.3291C5.11472 13.3306 5.55796 13.3291 6.0007 13.3291Z" fill="#414B61"/>
<path d="M4.65421 14.1827C4.56477 14.1827 4.31079 14.1797 4.13339 13.9989C4.05828 13.9223 3.96984 13.7854 3.97428 13.5675C3.97774 13.3916 4.05285 12.9824 4.66903 12.9824H4.67299C4.98528 12.9834 5.29757 12.9834 5.60986 12.9829H6.00121H6.39504C6.71425 12.9829 7.03395 12.9829 7.35365 12.9829C7.50387 12.9819 7.71931 13.0007 7.8799 13.1638C7.95452 13.2399 8.04297 13.3762 8.03901 13.5947C8.03358 13.8793 7.85421 14.1832 7.36551 14.1832H6.56946C5.93253 14.1832 5.29559 14.1832 4.65866 14.1832H4.65421V14.1827Z" fill="#414B61"/>
</g>
<defs>
<clipPath id="clip0_744_62457">
<rect width="12" height="20.8993" fill="white"/>
</clipPath>
</defs>
</svg>

<?xml version="1.0" encoding="utf-8"?>
<!-- Generator: Adobe Illustrator 24.0.2, SVG Export Plug-In . SVG Version: 6.00 Build 0)  -->
<svg version="1.1" id="Layer_1" xmlns="http://www.w3.org/2000/svg" xmlns:xlink="http://www.w3.org/1999/xlink" x="0px" y="0px"
	 viewBox="0 0 12 21" style="enable-background:new 0 0 12 21;" xml:space="preserve">
<style type="text/css">
	.st0{clip-path:url(#SVGID_2_);}
	.st1{fill:#414B61;}
</style>
<g>
	<defs>
		<rect id="SVGID_1_" width="12" height="20.9"/>
	</defs>
	<clipPath id="SVGID_2_">
		<use xlink:href="#SVGID_1_"  style="overflow:visible;"/>
	</clipPath>
	<g class="st0">
		<path class="st1" d="M0.3,7c0-0.1,0-0.3,0.1-0.4c0.2-1.1,1.2-1.9,2.4-1.9c1.3,0,2.6,0,3.9,0c0.1,0,0.2,0,0.3,0c0-0.1,0-0.2,0-0.3
			c0-0.9,0-1.9,0-2.8c0-0.5,0.2-0.9,0.7-1.1c0.4-0.2,0.8-0.2,1.2,0.1c0.3,0.2,0.5,0.6,0.5,1c0,0.9,0,1.8,0,2.8c0,0.1,0,0.2,0,0.3
			c0.2,0,0.3,0,0.5,0.1c1,0.2,1.8,1.1,1.8,2.1c0,1.1,0,2.1,0,3.2c0,0.5-0.1,0.9-0.3,1.4c-0.5,1.3-0.7,2.6-0.7,4c0,1.1,0,2.3,0,3.4
			c0,1-0.2,1.4-1.2,1.8H2.6c-1-0.4-1.2-0.7-1.2-1.8c0-1.2,0-2.5,0-3.7c0-0.6-0.1-1.1-0.1-1.7c-0.1-1.2-0.8-2.2-0.9-3.4
			C0.3,9,0.3,8,0.3,7z M6,5.2c-1.1,0-2.1,0-3.1,0c-1.2,0-2,0.8-2,2c0,0.8,0,1.7,0,2.5c0,0.6,0.1,1.1,0.3,1.7c0.4,1,0.6,2,0.7,3
			c0,1.5,0,3.1,0,4.6c0,0.7,0.3,1,1,1C5,20,7,20,9.1,20c0.7,0,1-0.3,1-1c0-1.2,0-2.4,0-3.6c0-1.4,0.2-2.8,0.7-4.1
			c0.2-0.5,0.3-1,0.3-1.6c0-0.8,0-1.7,0-2.5c0-0.2,0-0.3,0-0.5c-0.2-0.9-0.9-1.5-1.9-1.5C8.1,5.2,7.1,5.2,6,5.2L6,5.2z M8.8,4.7
			c0-1.1,0-2.2,0-3.2c0-0.4-0.3-0.6-0.7-0.6c-0.4,0-0.6,0.3-0.6,0.7c0,1,0,1.9,0,2.9c0,0.1,0,0.1,0,0.2H8.8z"/>
		<path class="st1" d="M9.5,20.9h-7l-0.1,0C1.3,20.5,1,20,1,18.8c0-0.4,0-0.7,0-1.1c0-0.9,0-1.7,0-2.6c0-0.6-0.1-1.1-0.1-1.7
			c-0.1-0.5-0.2-1-0.4-1.6C0.3,11.3,0.1,10.7,0,10l0,0V7l0,0c0,0,0-0.1,0-0.1c0-0.1,0-0.2,0.1-0.3c0.3-1.3,1.4-2.2,2.7-2.2
			c0.9,0,1.8,0,2.7,0c0.4,0,0.8,0,1.1,0c0-0.3,0-0.6,0-1c0-0.6,0-1.2,0-1.8c0-0.6,0.3-1.1,0.9-1.4C8-0.1,8.6,0,9.1,0.3
			C9.5,0.6,9.7,1,9.7,1.6c0,0.7,0,1.3,0,2c0,0.3,0,0.5,0,0.8v0c0.1,0,0.1,0,0.2,0c1.2,0.3,2,1.3,2.1,2.5c0,1,0,2.1,0,3.2
			c0,0.5-0.1,0.9-0.3,1.5c-0.5,1.3-0.7,2.6-0.7,3.8c0,0.8,0,1.6,0,2.4c0,0.3,0,0.7,0,1C11,20,10.7,20.5,9.5,20.9L9.5,20.9L9.5,20.9z
			 M4.1,5.5c-0.4,0-0.8,0-1.2,0c-1,0-1.6,0.6-1.6,1.7c0,0.3,0,0.6,0,0.9c0,0.5,0,1,0,1.6c0,0.5,0.1,1,0.3,1.5
			c0.4,1.2,0.7,2.2,0.7,3.1c0,1.1,0,2.2,0,3.3c0,0.4,0,0.9,0,1.3c0,0.5,0.2,0.7,0.7,0.7c2.1,0,4.2,0,6.2,0c0.5,0,0.7-0.2,0.7-0.7
			c0-0.3,0-0.6,0-1c0-0.9,0-1.7,0-2.6c0-1.5,0.2-2.9,0.7-4.2c0.2-0.5,0.3-0.9,0.3-1.4c0-0.5,0-1,0-1.5c0-0.3,0-0.7,0-1.1
			c0-0.1,0-0.3,0-0.4C10.6,6,10,5.5,9.2,5.5c-0.7,0-1.5,0-2.2,0c-0.6,0-1.3,0-1.9,0C4.7,5.5,4.4,5.5,4.1,5.5L4.1,5.5z M7.9,4.3h0.6
			c0-0.2,0-0.4,0-0.6c0-0.8,0-1.5,0-2.3c0-0.1,0-0.1-0.1-0.2C8.3,1.2,8.2,1.2,8.1,1.2c-0.1,0-0.3,0-0.3,0.4c0,0.8,0,1.5,0,2.3
			L7.9,4.3L7.9,4.3z"/>
		<path class="st1" d="M6,10.7c-0.8,0-1.6,0-2.4,0c-0.9,0-1.5-0.6-1.5-1.5c0-0.4,0-0.8,0-1.2c0-0.9,0.6-1.5,1.6-1.5
			c1.5,0,3.1,0,4.6,0c0.9,0,1.5,0.6,1.6,1.6c0,0.4,0,0.8,0,1.2c0,0.9-0.6,1.5-1.5,1.5C7.6,10.7,6.8,10.7,6,10.7z M6,10.2
			c0.8,0,1.6,0,2.4,0c0.6,0,0.9-0.4,0.9-0.9c0-0.4,0-0.8,0-1.3c0-0.6-0.4-1-1-1C6.8,7,5.2,7,3.7,7c-0.6,0-1,0.4-1,1
			c0,0.4,0,0.8,0,1.2c0,0.6,0.4,1,1,1C4.4,10.2,5.2,10.2,6,10.2L6,10.2z"/>
		<path class="st1" d="M4.5,11c-0.3,0-0.6,0-0.9,0c-1.1,0-1.8-0.7-1.8-1.8c0-0.4,0-0.8,0-1.2c0-1.1,0.8-1.9,1.9-1.9
			c1.5,0,3.1,0,4.6,0c1.1,0,1.9,0.8,1.9,1.9c0,0.4,0,0.7,0,1.2c0,1.1-0.8,1.8-1.8,1.8c-0.6,0-1.1,0-1.7,0c-0.2,0-0.5,0-0.7,0
			c-0.2,0-0.5,0-0.7,0C5,11,4.8,11,4.5,11L4.5,11z M6,9.9c0.2,0,0.5,0,0.7,0c0.6,0,1.1,0,1.7,0C8.8,9.8,9,9.6,9,9.3C9,8.8,9,8.4,9,8
			c0-0.4-0.3-0.7-0.7-0.7c-1.6,0-3.2,0-4.7,0C3.2,7.3,3,7.6,3,8c0,0.4,0,0.8,0,1.2c0,0.4,0.2,0.6,0.7,0.6c0.6,0,1.1,0,1.7,0L6,9.9
			L6,9.9z"/>
		<path class="st1" d="M6,15.4c-0.7,0-1.4,0-2.1,0c-0.2,0-0.3,0-0.3-0.2c0-0.2,0.2-0.3,0.3-0.3c1.4,0,2.8,0,4.1,0
			c0.2,0,0.3,0,0.3,0.3c0,0.2-0.2,0.2-0.3,0.2C7.4,15.4,6.7,15.4,6,15.4L6,15.4z"/>
		<path class="st1" d="M8.1,15.8C8.1,15.8,8.1,15.8,8.1,15.8c-0.5,0-1,0-1.5,0H6H5.4c-0.5,0-1,0-1.5,0c-0.1,0-0.4,0-0.5-0.2
			c-0.1-0.1-0.2-0.2-0.2-0.4c0-0.1,0.1-0.6,0.7-0.6h0c1.4,0,2.8,0,4.1,0h0c0.6,0,0.7,0.5,0.7,0.6c0,0.2-0.1,0.3-0.2,0.4
			C8.4,15.8,8.2,15.8,8.1,15.8L8.1,15.8z"/>
		<path class="st1" d="M6,16.7c0.7,0,1.4,0,2.1,0c0.2,0,0.3,0,0.3,0.2c0,0.2-0.1,0.3-0.3,0.3c-0.6,0-1.3,0-1.9,0c-0.7,0-1.5,0-2.2,0
			c-0.1,0-0.3-0.1-0.3-0.2c-0.1-0.2,0.1-0.3,0.3-0.3C4.6,16.7,5.3,16.7,6,16.7L6,16.7z"/>
		<path class="st1" d="M5.1,17.5c-0.4,0-0.8,0-1.1,0c-0.2,0-0.5-0.2-0.6-0.3c-0.1-0.2-0.1-0.4,0-0.5c0.1-0.2,0.3-0.3,0.6-0.3
			c0.5,0,1,0,1.5,0h1.1c0.5,0,1,0,1.5,0h0c0.6,0,0.7,0.4,0.7,0.5c0,0.2-0.1,0.4-0.1,0.5c-0.1,0.1-0.3,0.2-0.5,0.2H6.2
			c-0.2,0-0.4,0-0.5,0C5.4,17.5,5.3,17.5,5.1,17.5L5.1,17.5z"/>
		<path class="st1" d="M6,13.3c0.5,0,0.9,0,1.4,0c0.2,0,0.3,0,0.3,0.3c0,0.2-0.2,0.2-0.3,0.2c-0.9,0-1.8,0-2.7,0
			c-0.2,0-0.3,0-0.3-0.3c0-0.2,0.2-0.2,0.4-0.2C5.1,13.3,5.6,13.3,6,13.3z"/>
		<path class="st1" d="M4.7,14.2c-0.1,0-0.3,0-0.5-0.2C4.1,13.9,4,13.8,4,13.6C4,13.4,4.1,13,4.7,13h0c0.3,0,0.6,0,0.9,0H6h0.4
			c0.3,0,0.6,0,1,0c0.2,0,0.4,0,0.5,0.2C8,13.2,8,13.4,8,13.6c0,0.3-0.2,0.6-0.7,0.6H6.6C5.9,14.2,5.3,14.2,4.7,14.2L4.7,14.2
			L4.7,14.2z"/>
	</g>
</g>
</svg>
